X:746
T:Reel 746
M:4/4
K:Gmin
L:1/8
dc|BGGB FEFA|BABc defg| (3BAG dG FG (3AFF |CFFE F2GA|BABc defe|gddc decd|B2BA Bcdc| (3BAG AF GFDC|DGGA Bcdc|BABc defd|AFAB cAFA|cAfA cfdc|BAGF DEDC|DABc defd|gefd cAFA|BGAF  (3G=EC C2|
